X: 26
T:The Tailor's Choice
R:Reel
D:Session tape, Bangor - late 80's
S:Nigel and Dianna Boullier, bangor (banjo,fiddle)
M:4/4
Z:Bernie Stocks
K:G
D3B BAGE | DGBG A2BA | GEDG B3B | c2Bc AGED :: dGBG dGBG | d2BG AGED |
d2BG dGBG | c2Bc AGED | dGBG dGBG | d2BG AGED | cBcd egge | d2BG AGED ||
<end>
<start>
